;FLAVOR:Marlin
;TIME:5191
;Filament used: 3.10256m
;Layer height: 0.1
;Generated with Cura_SteamEngine 3.4.1
M190 S60
M104 S200
M109 S200
M82 ;absolute extrusion mode
G21 ;metric values
G90 ;absolute positioning
M82 ;set extruder to absolute mode
M107 ;start with the fan off
G28 X0 Y0 ;move X/Y to min endstops
G28 Z0 ;move Z to min endstops
G1 Z15.0 F9000 ;move the platform down 15mm
G92 E0 ;zero the extruded length
G1 F200 E3 ;extrude 3mm of feed stock
G92 E0 ;zero the extruded length again
G1 F9000
;Put printing message on LCD screen
M117 Printing...
G92 E0
G1 F1500 E-6.5
;LAYER_COUNT:66
;LAYER:0
M107
G0 F3600 X49.71 Y49.46 Z0.3
;TYPE:SKIRT
G1 F1500 E0
G1 F1800 X50.032 Y49.169 E0.02165
G1 X57.611 Y42.695 E0.51894
G1 X58.237 Y42.213 E0.55836
G1 X58.602 Y41.975 E0.5801
G1 X67.096 Y36.77 E1.0771
G1 X67.789 Y36.392 E1.11648
G1 X68.187 Y36.215 E1.13821
G1 X77.394 Y32.402 E1.63539
G1 X78.137 Y32.137 E1.67474
G1 X78.557 Y32.024 E1.69644
G1 X88.244 Y29.698 E2.19346
G1 X89.02 Y29.552 E2.23286
G1 X89.453 Y29.506 E2.25458
G1 X99.388 Y28.724 E2.75177
G1 X100.177 Y28.702 E2.79115
G1 X100.612 Y28.724 E2.81288
G1 X110.547 Y29.506 E3.31007
G1 X111.33 Y29.608 E3.34947
G1 X111.756 Y29.698 E3.37119
G1 X121.444 Y32.024 E3.86826
G1 X122.202 Y32.247 E3.90768
G1 X122.608 Y32.402 E3.92936
G1 X131.812 Y36.214 E4.42638
G1 X132.525 Y36.552 E4.46574
G1 X132.902 Y36.769 E4.48745
G1 X141.398 Y41.975 E4.98456
G1 X142.05 Y42.421 E5.02397
G1 X142.389 Y42.695 E5.04572
G1 X149.966 Y49.167 E5.54286
G1 X150.54 Y49.71 E5.58228
G1 X150.831 Y50.032 E5.60394
G1 X157.305 Y57.611 E6.10123
G1 X157.787 Y58.237 E6.14064
G1 X158.025 Y58.602 E6.16238
G1 X163.23 Y67.096 E6.65938
G1 X163.608 Y67.789 E6.69877
G1 X163.785 Y68.186 E6.72045
G1 X167.598 Y77.392 E7.21758
G1 X167.863 Y78.136 E7.25698
G1 X167.977 Y78.556 E7.27869
G1 X170.303 Y88.245 E7.77581
G1 X170.448 Y89.021 E7.8152
G1 X170.494 Y89.454 E7.83692
G1 X171.276 Y99.386 E8.33397
G1 X171.298 Y100.175 E8.37334
G1 X171.276 Y100.61 E8.39507
G1 X170.494 Y110.547 E8.89237
G1 X170.392 Y111.33 E8.93176
G1 X170.303 Y111.756 E8.95347
G1 X167.978 Y121.442 E9.45043
G1 X167.755 Y122.199 E9.48981
G1 X167.599 Y122.606 E9.51155
G1 X163.786 Y131.812 E10.00868
G1 X163.448 Y132.525 E10.04804
G1 X163.231 Y132.902 E10.06975
G1 X158.025 Y141.398 E10.56686
G1 X157.579 Y142.05 E10.60627
G1 X157.305 Y142.389 E10.62802
G1 X150.833 Y149.966 E11.12516
G1 X150.29 Y150.54 E11.16459
G1 X149.968 Y150.831 E11.18624
G1 X142.39 Y157.304 E11.68346
G1 X141.764 Y157.786 E11.72287
G1 X141.4 Y158.024 E11.74457
G1 X132.905 Y163.23 E12.24164
G1 X132.211 Y163.608 E12.28107
G1 X131.814 Y163.785 E12.30275
G1 X122.608 Y167.598 E12.79988
G1 X121.864 Y167.863 E12.83928
G1 X121.444 Y167.976 E12.86098
G1 X111.756 Y170.302 E13.35805
G1 X110.98 Y170.448 E13.39745
G1 X110.547 Y170.494 E13.41917
G1 X100.612 Y171.276 E13.91636
G1 X99.823 Y171.298 E13.95574
G1 X99.388 Y171.276 E13.97747
G1 X89.453 Y170.494 E14.47466
G1 X88.67 Y170.392 E14.51406
G1 X88.244 Y170.302 E14.53578
G1 X78.556 Y167.976 E15.03285
G1 X77.798 Y167.753 E15.07227
G1 X77.392 Y167.598 E15.09395
G1 X68.186 Y163.785 E15.59108
G1 X67.473 Y163.447 E15.63044
G1 X67.095 Y163.23 E15.65219
G1 X58.6 Y158.024 E16.14926
G1 X57.949 Y157.577 E16.18866
G1 X57.61 Y157.304 E16.21037
G1 X50.032 Y150.831 E16.70759
G1 X49.458 Y150.288 E16.74701
G1 X49.167 Y149.966 E16.76866
G1 X42.695 Y142.389 E17.26581
G1 X42.213 Y141.763 E17.30523
G1 X41.975 Y141.398 E17.32697
G1 X36.769 Y132.902 E17.82408
G1 X36.391 Y132.209 E17.86346
G1 X36.214 Y131.812 E17.88515
G1 X32.401 Y122.606 E18.38228
G1 X32.136 Y121.862 E18.42168
G1 X32.022 Y121.442 E18.44339
G1 X29.697 Y111.756 E18.94035
G1 X29.552 Y110.979 E18.97979
G1 X29.506 Y110.547 E19.00146
G1 X28.724 Y100.614 E19.49855
G1 X28.702 Y99.825 E19.53793
G1 X28.724 Y99.39 E19.55966
G1 X29.506 Y89.453 E20.05696
G1 X29.608 Y88.67 E20.09635
G1 X29.697 Y88.244 E20.11806
G1 X32.022 Y78.558 E20.61502
G1 X32.245 Y77.801 E20.6544
G1 X32.401 Y77.394 E20.67614
G1 X36.214 Y68.188 E21.17327
G1 X36.552 Y67.475 E21.21263
G1 X36.769 Y67.098 E21.23434
G1 X41.975 Y58.602 E21.73145
G1 X42.421 Y57.95 E21.77086
G1 X42.695 Y57.611 E21.79261
G1 X49.167 Y50.034 E22.28975
G1 X49.71 Y49.46 E22.32917
G0 F3600 X50.001 Y49.736
G1 F1800 X50.292 Y49.473 E22.34874
G1 X57.871 Y42.999 E22.84603
G1 X58.481 Y42.531 E22.88439
G1 X58.811 Y42.316 E22.90404
G1 X67.305 Y37.111 E23.40104
G1 X67.98 Y36.744 E23.43937
G1 X68.34 Y36.584 E23.45903
G1 X77.547 Y32.771 E23.9562
G1 X78.272 Y32.514 E23.99458
G1 X78.65 Y32.413 E24.0141
G1 X88.337 Y30.087 E24.51112
G1 X89.093 Y29.946 E24.54949
G1 X89.484 Y29.905 E24.5691
G1 X99.419 Y29.123 E25.06629
G1 X100.188 Y29.102 E25.10467
G1 X100.581 Y29.123 E25.12431
G1 X110.516 Y29.905 E25.6215
G1 X111.278 Y30.005 E25.65984
G1 X111.663 Y30.086 E25.67947
G1 X121.351 Y32.412 E26.17654
G1 X122.088 Y32.631 E26.2149
G1 X122.455 Y32.771 E26.2345
G1 X131.659 Y36.583 E26.73151
G1 X132.353 Y36.914 E26.76987
G1 X132.693 Y37.11 E26.78945
G1 X141.189 Y42.316 E27.28657
G1 X141.823 Y42.752 E27.32495
G1 X142.129 Y42.999 E27.34457
G1 X149.706 Y49.471 E27.84172
G1 X150.264 Y50.001 E27.88011
G1 X150.527 Y50.292 E27.89968
G1 X157.001 Y57.871 E28.39697
G1 X157.469 Y58.481 E28.43533
G1 X157.684 Y58.811 E28.45498
G1 X162.889 Y67.305 E28.95198
G1 X163.256 Y67.98 E28.99031
G1 X163.416 Y68.339 E29.00992
G1 X167.229 Y77.545 E29.50705
G1 X167.486 Y78.27 E29.54542
G1 X167.588 Y78.65 E29.56505
G1 X169.914 Y88.339 E30.06217
G1 X170.054 Y89.095 E30.10053
G1 X170.095 Y89.485 E30.1201
G1 X170.877 Y99.417 E30.61714
G1 X170.898 Y100.186 E30.65552
G1 X170.877 Y100.579 E30.67515
G1 X170.095 Y110.516 E31.17245
G1 X169.995 Y111.278 E31.21079
G1 X169.914 Y111.662 E31.23037
G1 X167.589 Y121.348 E31.72733
G1 X167.37 Y122.086 E31.76574
G1 X167.23 Y122.453 E31.78533
G1 X163.417 Y131.659 E32.28246
G1 X163.086 Y132.353 E32.32082
G1 X162.89 Y132.693 E32.3404
G1 X157.684 Y141.189 E32.83751
G1 X157.248 Y141.823 E32.8759
G1 X157.001 Y142.129 E32.89552
G1 X150.529 Y149.706 E33.39267
G1 X149.999 Y150.264 E33.43106
G1 X149.708 Y150.527 E33.45063
G1 X142.13 Y157 E33.94785
G1 X141.52 Y157.468 E33.98621
G1 X141.191 Y157.682 E34.00579
G1 X132.696 Y162.888 E34.50286
G1 X132.02 Y163.256 E34.54126
G1 X131.661 Y163.416 E34.56087
G1 X122.455 Y167.229 E35.05799
G1 X121.73 Y167.486 E35.09637
G1 X121.351 Y167.588 E35.11595
G1 X111.663 Y169.914 E35.61302
G1 X110.906 Y170.054 E35.65143
G1 X110.516 Y170.095 E35.67099
G1 X100.581 Y170.877 E36.16818
G1 X99.812 Y170.898 E36.20656
G1 X99.419 Y170.877 E36.2262
G1 X89.484 Y170.095 E36.72339
G1 X88.722 Y169.995 E36.76173
G1 X88.337 Y169.914 E36.78136
G1 X78.649 Y167.588 E37.27843
G1 X77.912 Y167.369 E37.31679
G1 X77.545 Y167.229 E37.33639
G1 X68.339 Y163.416 E37.83351
G1 X67.645 Y163.085 E37.87188
G1 X67.304 Y162.888 E37.89152
G1 X58.809 Y157.682 E38.38859
G1 X58.175 Y157.247 E38.42695
G1 X57.87 Y157 E38.44653
G1 X50.292 Y150.527 E38.94375
G1 X49.734 Y149.997 E38.98215
G1 X49.471 Y149.706 E39.00172
G1 X42.999 Y142.129 E39.49886
G1 X42.531 Y141.519 E39.53722
G1 X42.316 Y141.189 E39.55687
G1 X37.11 Y132.693 E40.05398
G1 X36.743 Y132.017 E40.09236
G1 X36.583 Y131.659 E40.11192
G1 X32.77 Y122.453 E40.60905
G1 X32.513 Y121.728 E40.64742
G1 X32.411 Y121.348 E40.66705
G1 X30.086 Y111.662 E41.16402
G1 X29.946 Y110.906 E41.20238
G1 X29.905 Y110.516 E41.22194
G1 X29.123 Y100.583 E41.71903
G1 X29.102 Y99.814 E41.75741
G1 X29.123 Y99.421 E41.77705
G1 X29.905 Y89.484 E42.27434
G1 X30.005 Y88.722 E42.31268
G1 X30.086 Y88.338 E42.33226
G1 X32.411 Y78.652 E42.82922
G1 X32.63 Y77.914 E42.86763
G1 X32.77 Y77.547 E42.88723
G1 X36.583 Y68.341 E43.38435
G1 X36.914 Y67.647 E43.42271
G1 X37.11 Y67.307 E43.44229
G1 X42.316 Y58.811 E43.93941
G1 X42.752 Y58.177 E43.97779
G1 X42.999 Y57.871 E43.99741
G1 X49.471 Y50.294 E44.49456
G1 X50.001 Y49.736 E44.53296
G0 F3600 X50.551 Y49.777
G1 F1800 X58.13 Y43.303 E45.03024
G1 X59.02 Y42.657 E45.08511
G1 X67.514 Y37.452 E45.58211
G1 X68.493 Y36.954 E45.63691
G1 X77.7 Y33.141 E46.13408
G1 X78.744 Y32.801 E46.18886
G1 X88.431 Y30.475 E46.68588
G1 X89.516 Y30.304 E46.74068
G1 X99.451 Y29.522 E47.23787
G1 X100.549 Y29.522 E47.29265
G1 X110.484 Y30.304 E47.78985
G1 X111.569 Y30.475 E47.84465
G1 X121.257 Y32.801 E48.34172
G1 X122.302 Y33.141 E48.39654
G1 X131.506 Y36.953 E48.89356
G1 X132.484 Y37.451 E48.94831
G1 X140.98 Y42.657 E49.44543
G1 X141.869 Y43.303 E49.50025
G1 X149.446 Y49.775 E49.9974
G1 X150.223 Y50.551 E50.05218
G1 X156.697 Y58.13 E50.54947
G1 X157.343 Y59.02 E50.60434
G1 X162.548 Y67.514 E51.10134
G1 X163.046 Y68.492 E51.1561
G1 X166.859 Y77.698 E51.65322
G1 X167.199 Y78.743 E51.70805
G1 X169.525 Y88.432 E52.20517
G1 X169.696 Y89.517 E52.25997
G1 X170.478 Y99.449 E52.75701
G1 X170.478 Y100.547 E52.81179
G1 X169.696 Y110.484 E53.30908
G1 X169.525 Y111.569 E53.36388
G1 X167.2 Y121.255 E53.86084
G1 X166.86 Y122.3 E53.91567
G1 X163.047 Y131.506 E54.41279
G1 X162.549 Y132.484 E54.46755
G1 X157.343 Y140.98 E54.96466
G1 X156.697 Y141.869 E55.01949
G1 X150.225 Y149.446 E55.51663
G1 X149.448 Y150.223 E55.57146
G1 X141.87 Y156.696 E56.06867
G1 X140.982 Y157.341 E56.12343
G1 X132.487 Y162.547 E56.6205
G1 X131.508 Y163.046 E56.67532
G1 X122.302 Y166.859 E57.17245
G1 X121.257 Y167.199 E57.22727
G1 X111.569 Y169.525 E57.72435
G1 X110.484 Y169.696 E57.77914
G1 X100.549 Y170.478 E58.27634
G1 X99.451 Y170.478 E58.33112
G1 X89.516 Y169.696 E58.82831
G1 X88.431 Y169.525 E58.88311
G1 X78.743 Y167.199 E59.38018
G1 X77.698 Y166.859 E59.435
G1 X68.492 Y163.046 E59.93213
G1 X67.513 Y162.547 E59.98695
G1 X59.018 Y157.341 E60.48402
G1 X58.13 Y156.696 E60.53878
G1 X50.552 Y150.223 E61.036
G1 X49.775 Y149.446 E61.09082
G1 X43.303 Y141.869 E61.58797
G1 X42.657 Y140.98 E61.64279
G1 X37.451 Y132.484 E62.1399
G1 X36.953 Y131.506 E62.19466
G1 X33.14 Y122.3 E62.69178
G1 X32.8 Y121.255 E62.74661
G1 X30.475 Y111.569 E63.24357
G1 X30.304 Y110.484 E63.29837
G1 X29.522 Y100.551 E63.79547
G1 X29.522 Y99.453 E63.85024
G1 X30.304 Y89.516 E64.34754
G1 X30.475 Y88.431 E64.40234
G1 X32.8 Y78.745 E64.8993
G1 X33.14 Y77.7 E64.95412
G1 X36.953 Y68.494 E65.45125
G1 X37.451 Y67.516 E65.506
G1 X42.657 Y59.02 E66.00312
G1 X43.303 Y58.131 E66.05794
G1 X49.775 Y50.554 E66.55509
G1 X50.551 Y49.777 E66.60988
G0 F3600 X50.811 Y50.082
G1 F1800 X58.39 Y43.608 E67.10716
G1 X59.229 Y42.999 E67.15889
G1 X67.723 Y37.794 E67.65589
G1 X68.646 Y37.323 E67.70759
G1 X77.853 Y33.51 E68.20476
G1 X78.837 Y33.19 E68.25638
G1 X88.524 Y30.864 E68.75341
G1 X89.547 Y30.702 E68.80508
G1 X99.482 Y29.92 E69.30227
G1 X100.518 Y29.92 E69.35396
G1 X110.453 Y30.702 E69.85115
G1 X111.476 Y30.864 E69.90282
G1 X121.164 Y33.19 E70.3999
G1 X122.148 Y33.51 E70.45152
G1 X131.352 Y37.322 E70.94853
G1 X132.275 Y37.792 E71.00021
G1 X140.771 Y42.998 E71.49732
G1 X141.61 Y43.608 E71.54907
G1 X149.187 Y50.08 E72.04622
G1 X149.918 Y50.811 E72.0978
G1 X156.392 Y58.39 E72.59508
G1 X157.001 Y59.229 E72.64681
G1 X162.206 Y67.723 E73.14381
G1 X162.677 Y68.645 E73.19546
G1 X166.49 Y77.851 E73.69259
G1 X166.81 Y78.836 E73.74426
G1 X169.136 Y88.525 E74.24138
G1 X169.298 Y89.548 E74.29305
G1 X170.08 Y99.48 E74.7901
G1 X170.08 Y100.516 E74.84178
G1 X169.298 Y110.453 E75.33907
G1 X169.136 Y111.475 E75.3907
G1 X166.811 Y121.161 E75.88766
G1 X166.491 Y122.147 E75.93938
G1 X162.678 Y131.353 E76.43651
G1 X162.208 Y132.275 E76.48814
G1 X157.002 Y140.771 E76.98525
G1 X156.392 Y141.61 E77.037
G1 X149.92 Y149.187 E77.53415
G1 X149.189 Y149.918 E77.58573
G1 X141.611 Y156.391 E78.08294
G1 X140.773 Y157 E78.13462
G1 X132.278 Y162.206 E78.6317
G1 X131.355 Y162.677 E78.68339
G1 X122.149 Y166.49 E79.18052
G1 X121.164 Y166.81 E79.23219
G1 X111.476 Y169.136 E79.72926
G1 X110.453 Y169.298 E79.78094
G1 X100.518 Y170.08 E80.27813
G1 X99.482 Y170.08 E80.32981
G1 X89.547 Y169.298 E80.82701
G1 X88.524 Y169.136 E80.87868
G1 X78.836 Y166.81 E81.37575
G1 X77.851 Y166.49 E81.42742
G1 X68.645 Y162.677 E81.92455
G1 X67.722 Y162.206 E81.97625
G1 X59.227 Y157 E82.47332
G1 X58.389 Y156.391 E82.525
G1 X50.811 Y149.918 E83.02222
G1 X50.08 Y149.187 E83.07379
G1 X43.608 Y141.61 E83.57094
G1 X42.998 Y140.771 E83.62269
G1 X37.792 Y132.275 E84.11981
G1 X37.322 Y131.353 E84.17144
G1 X33.509 Y122.147 E84.66856
G1 X33.189 Y121.161 E84.72028
G1 X30.864 Y111.475 E85.21724
G1 X30.702 Y110.453 E85.26887
G1 X29.92 Y100.52 E85.76596
G1 X29.92 Y99.484 E85.81765
G1 X30.702 Y89.547 E86.31494
G1 X30.864 Y88.525 E86.36656
G1 X33.189 Y78.839 E86.86353
G1 X33.509 Y77.853 E86.91524
G1 X37.322 Y68.647 E87.41237
G1 X37.792 Y67.725 E87.464
G1 X42.998 Y59.229 E87.96111
G1 X43.608 Y58.39 E88.01287
G1 X50.08 Y50.813 E88.51001
G1 X50.811 Y50.082 E88.56159
G0 F3600 X51.071 Y50.386
G1 F1800 X58.65 Y43.912 E89.05888
G1 X59.438 Y43.34 E89.10746
G1 X67.932 Y38.135 E89.60446
G1 X68.799 Y37.693 E89.65301
G1 X78.006 Y33.88 E90.15018
G1 X78.93 Y33.579 E90.19866
G1 X88.617 Y31.253 E90.69569
G1 X89.578 Y31.101 E90.74423
G1 X99.513 Y30.319 E91.24142
G1 X100.487 Y30.319 E91.29001
G1 X110.422 Y31.101 E91.78721
G1 X111.382 Y31.253 E91.8357
G1 X121.07 Y33.579 E92.33277
G1 X121.995 Y33.88 E92.3813
G1 X131.199 Y37.692 E92.87831
G1 X132.066 Y38.134 E92.92687
G1 X140.562 Y43.34 E93.42398
G1 X141.35 Y43.912 E93.47256
G1 X148.927 Y50.384 E93.96971
G1 X149.614 Y51.071 E94.01818
G1 X156.088 Y58.65 E94.51546
G1 X156.66 Y59.438 E94.56404
G1 X161.865 Y67.932 E95.06105
G1 X162.307 Y68.798 E95.10955
G1 X166.12 Y78.004 E95.60668
G1 X166.421 Y78.93 E95.65526
G1 X168.747 Y88.619 E96.15238
G1 X168.899 Y89.579 E96.20087
G1 X169.681 Y99.511 E96.69791
G1 X169.681 Y100.484 E96.74646
G1 X168.899 Y110.421 E97.24375
G1 X168.747 Y111.382 E97.29229
G1 X166.422 Y121.068 E97.78925
G1 X166.121 Y121.994 E97.83783
G1 X162.308 Y131.2 E98.33495
G1 X161.866 Y132.066 E98.38346
G1 X156.66 Y140.562 E98.88058
G1 X156.088 Y141.35 E98.92915
G1 X149.616 Y148.927 E99.4263
G1 X148.929 Y149.614 E99.47477
G1 X141.351 Y156.087 E99.97199
G1 X140.564 Y156.659 E100.02053
G1 X132.069 Y161.865 E100.5176
G1 X131.202 Y162.307 E100.56615
G1 X121.996 Y166.12 E101.06328
G1 X121.07 Y166.421 E101.11186
G1 X111.382 Y168.747 E101.60893
G1 X110.422 Y168.899 E101.65742
G1 X100.487 Y169.681 E102.15461
G1 X99.513 Y169.681 E102.2032
G1 X89.578 Y168.899 E102.7004
G1 X88.618 Y168.747 E102.74889
G1 X78.93 Y166.421 E103.24596
G1 X78.004 Y166.12 E103.29454
G1 X68.798 Y162.307 E103.79166
G1 X67.931 Y161.865 E103.84021
G1 X59.436 Y156.659 E104.33729
G1 X58.649 Y156.087 E104.38582
G1 X51.071 Y149.614 E104.88304
G1 X50.384 Y148.927 E104.93151
G1 X43.912 Y141.35 E105.42866
G1 X43.34 Y140.562 E105.47724
G1 X38.134 Y132.066 E105.97435
G1 X37.692 Y131.2 E106.02286
G1 X33.879 Y121.994 E106.51999
G1 X33.578 Y121.068 E106.56856
G1 X31.253 Y111.382 E107.06553
G1 X31.101 Y110.422 E107.11402
G1 X30.319 Y100.489 E107.61111
G1 X30.319 Y99.516 E107.65965
G1 X31.101 Y89.579 E108.15695
G1 X31.253 Y88.618 E108.20549
G1 X33.578 Y78.932 E108.70245
G1 X33.879 Y78.006 E108.75103
G1 X37.692 Y68.8 E109.24815
G1 X38.134 Y67.934 E109.29666
G1 X43.34 Y59.438 E109.79378
G1 X43.912 Y58.65 E109.84235
G1 X50.384 Y51.073 E110.3395
G1 X51.071 Y50.386 E110.38797
G0 F3600 X51.331 Y50.69
G1 F1800 X58.91 Y44.216 E110.88526
G1 X59.647 Y43.681 E110.9307
G1 X68.141 Y38.476 E111.4277
G1 X68.952 Y38.062 E111.47313
G1 X78.159 Y34.249 E111.9703
G1 X79.024 Y33.968 E112.01567
G1 X88.711 Y31.642 E112.5127
G1 X89.61 Y31.5 E112.5581
G1 X99.545 Y30.718 E113.0553
G1 X100.455 Y30.718 E113.1007
G1 X110.39 Y31.5 E113.59789
G1 X111.289 Y31.642 E113.6433
G1 X120.977 Y33.968 E114.14037
G1 X121.842 Y34.249 E114.18574
G1 X131.046 Y38.061 E114.68276
G1 X131.857 Y38.475 E114.72819
G1 X140.353 Y43.681 E115.2253
G1 X141.09 Y44.216 E115.27074
G1 X148.667 Y50.688 E115.76788
G1 X149.31 Y51.331 E115.81325
G1 X155.784 Y58.91 E116.31054
G1 X156.319 Y59.647 E116.35597
G1 X161.524 Y68.141 E116.85298
G1 X161.938 Y68.952 E116.8984
G1 X165.751 Y78.158 E117.39553
G1 X166.032 Y79.023 E117.44091
G1 X168.358 Y88.712 E117.93803
G1 X168.5 Y89.611 E117.98343
G1 X169.282 Y99.543 E118.48048
G1 X169.282 Y100.453 E118.52588
G1 X168.5 Y110.39 E119.02317
G1 X168.358 Y111.289 E119.06857
