;FLAVOR:Marlin
;TIME:17468
;Filament used: 8.87647m
;Layer height: 0.1
;Generated with Cura_SteamEngine 3.4.1
M82 ;absolute extrusion mode
G21 ; set units to millimeters
G90 ; use absolute positioning
M82 ; absolute extrusion mode
M104 S200 ; set extruder temp
M140 S60 ; set bed temp
M190 S60 ; wait for bed temp
M109 S200 ; wait for extruder temp
G28 W ; home all without mesh bed level
G80 ; mesh bed leveling
G92 E0.0 ; reset extruder distance position
G1 Y-3.0 F1000.0 ; go outside print area
G1 X60.0 E9.0 F1000.0 ; intro line
G1 X100.0 E21.5 F1000.0 ; intro line
G92 E0.0 ; reset extruder distance position
G92 E0
G1 F2100 E-0.8
;LAYER_COUNT:25
;LAYER:0
M107
G0 F3600 X67.695 Y62.611 Z0.15
;TYPE:SKIRT
G1 F2100 E0
G1 F1800 X74.167 Y55.034 E0.24857
G1 X74.71 Y54.46 E0.26828
G1 X75.032 Y54.169 E0.27911
G1 X82.611 Y47.695 E0.52775
G1 X83.237 Y47.213 E0.54746
G1 X83.602 Y46.975 E0.55833
G1 X92.096 Y41.77 E0.80683
G1 X92.789 Y41.392 E0.82652
G1 X93.186 Y41.215 E0.83737
G1 X102.392 Y37.402 E1.08593
G1 X103.136 Y37.137 E1.10563
G1 X103.556 Y37.024 E1.11648
G1 X113.244 Y34.698 E1.36502
G1 X114.02 Y34.552 E1.38471
G1 X114.453 Y34.506 E1.39558
G1 X124.388 Y33.724 E1.64417
G1 X125.177 Y33.702 E1.66386
G1 X125.612 Y33.724 E1.67473
G1 X135.547 Y34.506 E1.92332
G1 X136.33 Y34.608 E1.94302
G1 X136.756 Y34.698 E1.95388
G1 X146.444 Y37.024 E2.20242
G1 X147.202 Y37.247 E2.22213
G1 X147.608 Y37.402 E2.23297
G1 X156.812 Y41.214 E2.48147
G1 X157.525 Y41.552 E2.50116
G1 X157.902 Y41.769 E2.51201
G1 X166.398 Y46.975 E2.76057
G1 X167.05 Y47.421 E2.78027
G1 X167.389 Y47.695 E2.79114
G1 X174.966 Y54.167 E3.03972
G1 X175.54 Y54.71 E3.05943
G1 X175.831 Y55.032 E3.07025
G1 X182.305 Y62.611 E3.3189
G1 X182.787 Y63.237 E3.33861
G1 X183.025 Y63.602 E3.34948
G1 X188.23 Y72.096 E3.59798
G1 X188.608 Y72.789 E3.61767
G1 X188.785 Y73.186 E3.62851
G1 X192.598 Y82.392 E3.87707
G1 X192.863 Y83.136 E3.89678
G1 X192.977 Y83.556 E3.90763
G1 X195.303 Y93.245 E4.15619
G1 X195.448 Y94.021 E4.17588
G1 X195.494 Y94.454 E4.18675
G1 X196.276 Y104.386 E4.43527
G1 X196.298 Y105.175 E4.45496
G1 X196.276 Y105.61 E4.46582
G1 X195.494 Y115.547 E4.71447
G1 X195.392 Y116.33 E4.73417
G1 X195.303 Y116.756 E4.74502
G1 X192.978 Y126.442 E4.9935
G1 X192.755 Y127.199 E5.01319
G1 X192.599 Y127.606 E5.02406
G1 X188.786 Y136.812 E5.27262
G1 X188.448 Y137.525 E5.29231
G1 X188.231 Y137.902 E5.30316
G1 X183.025 Y146.398 E5.55172
G1 X182.579 Y147.05 E5.57142
G1 X182.305 Y147.389 E5.58229
G1 X175.833 Y154.966 E5.83087
G1 X175.29 Y155.54 E5.85058
G1 X174.968 Y155.831 E5.8614
G1 X167.39 Y162.304 E6.11001
G1 X166.764 Y162.786 E6.12972
G1 X166.4 Y163.024 E6.14057
G1 X157.905 Y168.23 E6.38911
G1 X157.211 Y168.608 E6.40882
G1 X156.814 Y168.785 E6.41966
G1 X147.608 Y172.598 E6.66823
G1 X146.864 Y172.863 E6.68793
G1 X146.444 Y172.976 E6.69878
G1 X136.756 Y175.302 E6.94731
G1 X135.98 Y175.448 E6.96701
G1 X135.547 Y175.494 E6.97787
G1 X125.612 Y176.276 E7.22647
G1 X124.823 Y176.298 E7.24616
G1 X124.388 Y176.276 E7.25702
G1 X114.453 Y175.494 E7.50562
G1 X113.67 Y175.392 E7.52531
G1 X113.244 Y175.302 E7.53618
G1 X103.556 Y172.976 E7.78471
G1 X102.798 Y172.753 E7.80442
G1 X102.392 Y172.598 E7.81526
G1 X93.186 Y168.785 E8.06382
G1 X92.473 Y168.447 E8.08351
G1 X92.095 Y168.23 E8.09438
G1 X83.6 Y163.024 E8.34292
G1 X82.949 Y162.577 E8.36262
G1 X82.61 Y162.304 E8.37347
G1 X75.032 Y155.831 E8.62208
G1 X74.458 Y155.288 E8.64179
G1 X74.167 Y154.966 E8.65262
G1 X67.695 Y147.389 E8.90119
G1 X67.213 Y146.763 E8.9209
G1 X66.975 Y146.398 E8.93177
G1 X61.769 Y137.902 E9.18033
G1 X61.391 Y137.209 E9.20002
G1 X61.214 Y136.812 E9.21086
G1 X57.401 Y127.606 E9.45942
G1 X57.136 Y126.862 E9.47913
G1 X57.022 Y126.442 E9.48998
G1 X54.697 Y116.756 E9.73846
G1 X54.552 Y115.979 E9.75818
G1 X54.506 Y115.547 E9.76902
G1 X53.724 Y105.614 E10.01756
G1 X53.702 Y104.825 E10.03725
G1 X53.724 Y104.39 E10.04812
G1 X54.506 Y94.453 E10.29676
G1 X54.608 Y93.67 E10.31646
G1 X54.697 Y93.244 E10.32732
G1 X57.022 Y83.558 E10.5758
G1 X57.245 Y82.801 E10.59548
G1 X57.401 Y82.394 E10.60636
G1 X61.214 Y73.188 E10.85492
G1 X61.552 Y72.475 E10.8746
G1 X61.769 Y72.098 E10.88545
G1 X66.975 Y63.602 E11.13401
G1 X67.421 Y62.95 E11.15372
G1 X67.695 Y62.611 E11.16459
G0 F3600 X67.999 Y62.871
G1 F1800 X74.471 Y55.294 E11.41316
G1 X75.001 Y54.736 E11.43236
G1 X75.292 Y54.473 E11.44214
G1 X82.871 Y47.999 E11.69079
G1 X83.481 Y47.531 E11.70997
G1 X83.811 Y47.316 E11.71979
G1 X92.305 Y42.111 E11.96829
G1 X92.98 Y41.744 E11.98746
G1 X93.339 Y41.584 E11.99726
G1 X102.545 Y37.771 E12.24583
G1 X103.27 Y37.514 E12.26501
G1 X103.649 Y37.412 E12.27481
G1 X113.337 Y35.086 E12.52334
G1 X114.094 Y34.946 E12.54255
G1 X114.484 Y34.905 E12.55233
G1 X124.419 Y34.123 E12.80092
G1 X125.188 Y34.102 E12.82011
G1 X125.581 Y34.123 E12.82993
G1 X135.516 Y34.905 E13.07853
G1 X136.278 Y35.005 E13.0977
G1 X136.663 Y35.086 E13.10751
G1 X146.351 Y37.412 E13.35605
G1 X147.088 Y37.631 E13.37523
G1 X147.455 Y37.771 E13.38503
G1 X156.659 Y41.583 E13.63353
G1 X157.353 Y41.914 E13.65271
G1 X157.693 Y42.11 E13.6625
G1 X166.189 Y47.316 E13.91106
G1 X166.823 Y47.752 E13.93025
G1 X167.129 Y47.999 E13.94006
G1 X174.706 Y54.471 E14.18864
G1 X175.264 Y55.001 E14.20783
G1 X175.527 Y55.292 E14.21762
G1 X182.001 Y62.871 E14.46626
G1 X182.469 Y63.481 E14.48544
G1 X182.684 Y63.811 E14.49527
G1 X187.889 Y72.305 E14.74377
G1 X188.256 Y72.98 E14.76293
G1 X188.416 Y73.339 E14.77274
G1 X192.229 Y82.545 E15.0213
G1 X192.486 Y83.27 E15.04049
G1 X192.588 Y83.65 E15.0503
G1 X194.914 Y93.339 E15.29886
G1 X195.054 Y94.095 E15.31804
G1 X195.095 Y94.485 E15.32782
G1 X195.877 Y104.417 E15.57635
G1 X195.898 Y105.186 E15.59554
G1 X195.877 Y105.579 E15.60535
G1 X195.095 Y115.516 E15.854
G1 X194.995 Y116.278 E15.87317
G1 X194.914 Y116.662 E15.88296
G1 X192.589 Y126.348 E16.13144
G1 X192.37 Y127.086 E16.15065
G1 X192.23 Y127.453 E16.16044
G1 X188.417 Y136.659 E16.40901
G1 X188.086 Y137.353 E16.42819
G1 X187.89 Y137.693 E16.43798
G1 X182.684 Y146.189 E16.68653
G1 X182.248 Y146.823 E16.70573
G1 X182.001 Y147.129 E16.71554
G1 X175.529 Y154.706 E16.96411
G1 X174.999 Y155.264 E16.98331
G1 X174.708 Y155.527 E16.99309
G1 X167.13 Y162 E17.2417
G1 X166.52 Y162.468 E17.26088
G1 X166.191 Y162.682 E17.27067
G1 X157.696 Y167.888 E17.51921
G1 X157.02 Y168.256 E17.53841
G1 X156.661 Y168.416 E17.54821
G1 X147.455 Y172.229 E17.79677
G1 X146.73 Y172.486 E17.81596
G1 X146.351 Y172.588 E17.82575
G1 X136.663 Y174.914 E18.07429
G1 X135.906 Y175.054 E18.09349
G1 X135.516 Y175.095 E18.10327
G1 X125.581 Y175.877 E18.35187
G1 X124.812 Y175.898 E18.37106
G1 X124.419 Y175.877 E18.38088
G1 X114.484 Y175.095 E18.62947
G1 X113.722 Y174.995 E18.64864
G1 X113.337 Y174.914 E18.65846
G1 X103.649 Y172.588 E18.90699
G1 X102.912 Y172.369 E18.92617
G1 X102.545 Y172.229 E18.93597
G1 X93.339 Y168.416 E19.18453
G1 X92.645 Y168.085 E19.20371
G1 X92.304 Y167.888 E19.21354
G1 X83.809 Y162.682 E19.46207
G1 X83.175 Y162.247 E19.48125
G1 X82.87 Y162 E19.49104
G1 X75.292 Y155.527 E19.73965
G1 X74.734 Y154.997 E19.75885
G1 X74.471 Y154.706 E19.76863
G1 X67.999 Y147.129 E20.01721
G1 X67.531 Y146.519 E20.03639
G1 X67.316 Y146.189 E20.04621
G1 X62.11 Y137.693 E20.29477
G1 X61.743 Y137.017 E20.31396
G1 X61.583 Y136.659 E20.32374
G1 X57.77 Y127.453 E20.5723
G1 X57.513 Y126.728 E20.59149
G1 X57.411 Y126.348 E20.6013
G1 X55.086 Y116.662 E20.84979
G1 X54.946 Y115.906 E20.86896
G1 X54.905 Y115.516 E20.87875
G1 X54.123 Y105.583 E21.12729
G1 X54.102 Y104.814 E21.14648
G1 X54.123 Y104.421 E21.1563
G1 X54.905 Y94.484 E21.40495
G1 X55.005 Y93.722 E21.42412
G1 X55.086 Y93.338 E21.43391
G1 X57.411 Y83.652 E21.68239
G1 X57.63 Y82.914 E21.70159
G1 X57.77 Y82.547 E21.71139
G1 X61.583 Y73.341 E21.95995
G1 X61.914 Y72.647 E21.97913
G1 X62.11 Y72.307 E21.98892
G1 X67.316 Y63.811 E22.23748
G1 X67.752 Y63.177 E22.25667
G1 X67.999 Y62.871 E22.26648
G0 F3600 X68.303 Y63.131
G1 F1800 X74.775 Y55.554 E22.51506
G1 X75.551 Y54.777 E22.54245
G1 X83.13 Y48.303 E22.79109
G1 X84.02 Y47.657 E22.81853
G1 X92.514 Y42.452 E23.06703
G1 X93.492 Y41.954 E23.09441
G1 X102.698 Y38.141 E23.34297
G1 X103.743 Y37.801 E23.37038
G1 X113.431 Y35.475 E23.61892
G1 X114.516 Y35.304 E23.64632
G1 X124.451 Y34.522 E23.89491
G1 X125.549 Y34.522 E23.9223
G1 X135.484 Y35.304 E24.1709
G1 X136.569 Y35.475 E24.1983
G1 X146.257 Y37.801 E24.44683
G1 X147.302 Y38.141 E24.47425
G1 X156.506 Y41.953 E24.72275
G1 X157.484 Y42.451 E24.75013
G1 X165.98 Y47.657 E24.99869
G1 X166.869 Y48.303 E25.0261
G1 X174.446 Y54.775 E25.27467
G1 X175.223 Y55.551 E25.30207
G1 X181.697 Y63.13 E25.55071
G1 X182.343 Y64.02 E25.57814
G1 X187.548 Y72.514 E25.82665
G1 X188.046 Y73.492 E25.85402
G1 X191.859 Y82.698 E26.10259
G1 X192.199 Y83.743 E26.13
G1 X194.525 Y93.432 E26.37856
G1 X194.696 Y94.517 E26.40596
G1 X195.478 Y104.449 E26.65448
G1 X195.478 Y105.547 E26.68187
G1 X194.696 Y115.484 E26.93052
G1 X194.525 Y116.569 E26.95792
G1 X192.2 Y126.255 E27.2064
G1 X191.86 Y127.3 E27.23381
G1 X188.047 Y136.506 E27.48237
G1 X187.549 Y137.484 E27.50975
G1 X182.343 Y145.98 E27.75831
G1 X181.697 Y146.869 E27.78572
G1 X175.225 Y154.446 E28.03429
G1 X174.448 Y155.223 E28.0617
G1 X166.87 Y161.696 E28.31031
G1 X165.982 Y162.341 E28.33769
G1 X157.487 Y167.547 E28.58623
G1 X156.508 Y168.046 E28.61364
G1 X147.302 Y171.859 E28.8622
G1 X146.257 Y172.199 E28.88961
G1 X136.569 Y174.525 E29.13815
G1 X135.484 Y174.696 E29.16555
G1 X125.549 Y175.478 E29.41414
G1 X124.451 Y175.478 E29.44153
G1 X114.516 Y174.696 E29.69013
G1 X113.431 Y174.525 E29.71753
G1 X103.743 Y172.199 E29.96606
G1 X102.698 Y171.859 E29.99348
G1 X93.492 Y168.046 E30.24204
G1 X92.513 Y167.547 E30.26945
G1 X84.018 Y162.341 E30.51799
G1 X83.13 Y161.696 E30.54536
G1 X75.552 Y155.223 E30.79397
G1 X74.775 Y154.446 E30.82138
G1 X68.303 Y146.869 E31.06996
G1 X67.657 Y145.98 E31.09737
G1 X62.451 Y137.484 E31.34593
G1 X61.953 Y136.506 E31.3733
G1 X58.14 Y127.3 E31.62187
G1 X57.8 Y126.255 E31.64928
G1 X55.475 Y116.569 E31.89776
G1 X55.304 Y115.484 E31.92516
G1 X54.522 Y105.551 E32.17371
G1 X54.522 Y104.453 E32.2011
G1 X55.304 Y94.516 E32.44974
G1 X55.475 Y93.431 E32.47714
G1 X57.8 Y83.745 E32.72562
G1 X58.14 Y82.7 E32.75304
G1 X61.953 Y73.494 E33.0016
G1 X62.451 Y72.516 E33.02898
G1 X67.657 Y64.02 E33.27753
G1 X68.303 Y63.131 E33.30495
G0 F3600 X68.608 Y63.39
G1 F1800 X75.08 Y55.813 E33.55352
G1 X75.811 Y55.082 E33.57931
G1 X83.39 Y48.608 E33.82795
G1 X84.229 Y47.999 E33.85381
G1 X92.723 Y42.794 E34.10232
G1 X93.645 Y42.323 E34.12814
G1 X102.851 Y38.51 E34.37671
G1 X103.836 Y38.19 E34.40254
G1 X113.524 Y35.864 E34.65108
G1 X114.547 Y35.702 E34.67691
G1 X124.482 Y34.92 E34.92551
G1 X125.518 Y34.92 E34.95135
G1 X135.453 Y35.702 E35.19995
G1 X136.476 Y35.864 E35.22578
G1 X146.164 Y38.19 E35.47432
G1 X147.148 Y38.51 E35.50013
G1 X156.352 Y42.322 E35.74864
G1 X157.275 Y42.792 E35.77448
G1 X165.771 Y47.998 E36.02303
G1 X166.61 Y48.608 E36.04891
G1 X174.187 Y55.08 E36.29748
G1 X174.918 Y55.811 E36.32327
G1 X181.392 Y63.39 E36.57192
G1 X182.001 Y64.229 E36.59778
G1 X187.206 Y72.723 E36.84628
G1 X187.677 Y73.645 E36.8721
G1 X191.49 Y82.851 E37.12067
G1 X191.81 Y83.836 E37.1465
G1 X194.136 Y93.525 E37.39506
G1 X194.298 Y94.548 E37.4209
G1 X195.08 Y104.48 E37.66942
G1 X195.08 Y105.516 E37.69526
G1 X194.298 Y115.453 E37.94391
G1 X194.136 Y116.475 E37.96972
G1 X191.811 Y126.161 E38.2182
G1 X191.491 Y127.147 E38.24406
G1 X187.678 Y136.353 E38.49263
G1 X187.208 Y137.275 E38.51844
G1 X182.002 Y145.771 E38.767
G1 X181.392 Y146.61 E38.79287
G1 X174.92 Y154.187 E39.04145
G1 X174.189 Y154.918 E39.06724
G1 X166.611 Y161.391 E39.31584
G1 X165.773 Y162 E39.34169
G1 X157.278 Y167.206 E39.59022
G1 X156.355 Y167.677 E39.61607
G1 X147.149 Y171.49 E39.86463
G1 X146.164 Y171.81 E39.89047
G1 X136.476 Y174.136 E40.139
G1 X135.453 Y174.298 E40.16484
G1 X125.518 Y175.08 E40.41344
G1 X124.482 Y175.08 E40.43928
G1 X114.547 Y174.298 E40.68788
G1 X113.524 Y174.136 E40.71371
G1 X103.836 Y171.81 E40.96225
G1 X102.851 Y171.49 E40.98808
G1 X93.645 Y167.677 E41.23665
G1 X92.722 Y167.206 E41.2625
G1 X84.227 Y162 E41.51103
G1 X83.389 Y161.391 E41.53687
G1 X75.811 Y154.918 E41.78548
G1 X75.08 Y154.187 E41.81127
G1 X68.608 Y146.61 E42.05984
G1 X67.998 Y145.771 E42.08572
G1 X62.792 Y137.275 E42.33428
G1 X62.322 Y136.353 E42.36009
G1 X58.509 Y127.147 E42.60865
G1 X58.189 Y126.161 E42.63451
G1 X55.864 Y116.475 E42.88299
G1 X55.702 Y115.453 E42.90881
G1 X54.92 Y105.52 E43.15735
G1 X54.92 Y104.484 E43.1832
G1 X55.702 Y94.547 E43.43184
G1 X55.864 Y93.525 E43.45765
G1 X58.189 Y83.839 E43.70614
G1 X58.509 Y82.853 E43.73199
G1 X62.322 Y73.647 E43.98056
G1 X62.792 Y72.725 E44.00637
G1 X67.998 Y64.229 E44.25493
G1 X68.608 Y63.39 E44.28081
G0 F3600 X68.912 Y63.65
G1 F1800 X75.384 Y56.073 E44.52938
G1 X76.071 Y55.386 E44.55361
G1 X83.65 Y48.912 E44.80226
G1 X84.438 Y48.34 E44.82655
G1 X92.932 Y43.135 E45.07505
G1 X93.798 Y42.693 E45.0993
G1 X103.004 Y38.88 E45.34787
G1 X103.93 Y38.579 E45.37216
G1 X113.618 Y36.253 E45.62069
G1 X114.578 Y36.101 E45.64494
G1 X124.513 Y35.319 E45.89353
G1 X125.487 Y35.319 E45.91783
G1 X135.422 Y36.101 E46.16643
G1 X136.382 Y36.253 E46.19067
G1 X146.07 Y38.579 E46.43921
G1 X146.995 Y38.88 E46.46347
G1 X156.199 Y42.692 E46.71198
G1 X157.066 Y43.134 E46.73626
G1 X165.562 Y48.34 E46.98481
G1 X166.35 Y48.912 E47.0091
G1 X173.927 Y55.384 E47.25768
G1 X174.614 Y56.071 E47.28191
G1 X181.088 Y63.65 E47.53055
G1 X181.66 Y64.438 E47.55484
G1 X186.865 Y72.932 E47.80335
G1 X187.307 Y73.798 E47.8276
G1 X191.12 Y83.004 E48.07616
G1 X191.421 Y83.93 E48.10045
G1 X193.747 Y93.619 E48.34901
G1 X193.899 Y94.579 E48.37326
G1 X194.681 Y104.511 E48.62178
G1 X194.681 Y105.484 E48.64605
G1 X193.899 Y115.421 E48.8947
G1 X193.747 Y116.382 E48.91897
G1 X191.422 Y126.068 E49.16745
G1 X191.121 Y126.994 E49.19174
G1 X187.308 Y136.2 E49.4403
G1 X186.866 Y137.066 E49.46455
G1 X181.66 Y145.562 E49.71311
G1 X181.088 Y146.35 E49.7374
G1 X174.616 Y153.927 E49.98597
G1 X173.929 Y154.614 E50.01021
G1 X166.351 Y161.087 E50.25882
G1 X165.564 Y161.659 E50.28309
G1 X157.069 Y166.865 E50.53162
G1 X156.202 Y167.307 E50.5559
G1 X146.996 Y171.12 E50.80446
G1 X146.07 Y171.421 E50.82875
G1 X136.382 Y173.747 E51.07729
G1 X135.422 Y173.899 E51.10153
G1 X125.487 Y174.681 E51.35013
G1 X124.513 Y174.681 E51.37442
G1 X114.578 Y173.899 E51.62302
G1 X113.618 Y173.747 E51.64727
G1 X103.93 Y171.421 E51.8958
G1 X103.004 Y171.12 E51.92009
G1 X93.798 Y167.307 E52.16865
G1 X92.931 Y166.865 E52.19293
G1 X84.436 Y161.659 E52.44147
G1 X83.649 Y161.087 E52.46573
G1 X76.071 Y154.614 E52.71434
G1 X75.384 Y153.927 E52.73858
G1 X68.912 Y146.35 E52.98715
G1 X68.34 Y145.562 E53.01144
G1 X63.134 Y137.066 E53.26
G1 X62.692 Y136.2 E53.28425
G1 X58.879 Y126.994 E53.53282
G1 X58.578 Y126.068 E53.5571
G1 X56.253 Y116.382 E53.80559
G1 X56.101 Y115.422 E53.82983
G1 X55.319 Y105.489 E54.07838
G1 X55.319 Y104.516 E54.10265
G1 X56.101 Y94.579 E54.3513
G1 X56.253 Y93.618 E54.37557
G1 X58.578 Y83.932 E54.62405
G1 X58.879 Y83.006 E54.64834
G1 X62.692 Y73.8 E54.8969
G1 X63.134 Y72.934 E54.92115
G1 X68.34 Y64.438 E55.16971
G1 X68.912 Y63.65 E55.194
G0 F3600 X69.216 Y63.91
G1 F1800 X75.688 Y56.333 E55.44257
G1 X76.331 Y55.69 E55.46526
G1 X83.91 Y49.216 E55.7139
G1 X84.647 Y48.681 E55.73662
G1 X93.141 Y43.476 E55.98512
G1 X93.952 Y43.062 E56.00783
G1 X103.158 Y39.249 E56.2564
G1 X104.023 Y38.968 E56.27908
G1 X113.711 Y36.642 E56.52762
G1 X114.61 Y36.5 E56.55032
G1 X124.545 Y35.718 E56.79892
G1 X125.455 Y35.718 E56.82162
G1 X135.39 Y36.5 E57.07022
G1 X136.289 Y36.642 E57.09292
G1 X145.977 Y38.968 E57.34146
G1 X146.842 Y39.249 E57.36414
G1 X156.046 Y43.061 E57.61265
G1 X156.857 Y43.475 E57.63536
G1 X165.353 Y48.681 E57.88392
G1 X166.09 Y49.216 E57.90664
G1 X173.667 Y55.688 E58.15521
G1 X174.31 Y56.331 E58.1779
G1 X180.784 Y63.91 E58.42654
G1 X181.319 Y64.647 E58.44926
G1 X186.524 Y73.141 E58.69776
G1 X186.938 Y73.952 E58.72047
G1 X190.751 Y83.158 E58.96904
G1 X191.032 Y84.023 E58.99172
G1 X193.358 Y93.712 E59.24028
G1 X193.5 Y94.611 E59.26299
G1 X194.282 Y104.543 E59.51151
G1 X194.282 Y105.453 E59.53421
